lib/logo_tmp/nrk-logo-nrk-p13-with-bg.svg

<svg width="86" height="28" viewBox="0 0 86 28" fill="none" xmlns="http://www.w3.org/2000/svg">
<rect width="86" height="28" fill="#FFA90A"/>
<path d="M6.66663 21V7.00129H11.26V21H6.66663ZM17.5094 9.22926L20.151 21H15.124L11.9697 7.00129H14.7892C15.4357 6.9929 16.063 7.22081 16.5535 7.64214C17.0449 8.0458 17.3824 8.60617 17.5094 9.22926ZM20.8411 21V7.00129H25.4345V21H20.8411ZM28.9038 12.3248C28.4089 12.3296 27.9218 12.2001 27.4946 11.9501C27.073 11.7065 26.7229 11.3563 26.4793 10.9347C26.229 10.5074 26.0995 10.0202 26.1044 9.52506C26.0988 9.03289 26.2284 8.54863 26.4793 8.12519C26.7255 7.70818 27.0752 7.3618 27.4946 7.11963C27.922 6.86994 28.4089 6.74045 28.9038 6.74497C29.3959 6.73967 29.8799 6.86927 30.3035 7.11963C30.7187 7.36392 31.0647 7.71001 31.309 8.12519C31.5596 8.54875 31.6892 9.03293 31.6838 9.52506C31.6884 10.0202 31.5589 10.5073 31.309 10.9347C31.0673 11.3545 30.7209 11.7043 30.3035 11.9501C29.8799 12.201 29.3955 12.3306 28.9032 12.3248H28.9038ZM32.3935 21V7.00129H36.9873V21H32.3935ZM42.8027 14.6513C42.8156 14.6649 42.9141 14.8259 43.0983 15.1343C43.2826 15.4428 43.5224 15.8372 43.8179 16.3174C44.1136 16.7973 44.4257 17.3067 44.754 17.8454C45.0824 18.384 45.3913 18.8934 45.6809 19.3734C45.9694 19.8534 46.298 20.3956 46.6666 21H41.6198C41.3041 20.4874 41.0181 20.0241 40.7618 19.61C40.5056 19.196 40.2331 18.749 39.9444 18.2693C39.6551 17.7899 39.369 17.3233 39.0862 16.8694C38.8034 16.4155 38.5604 16.0179 38.3571 15.6766C38.153 15.3351 38.0116 15.105 37.9329 14.9865C37.7379 14.6924 37.6225 14.3527 37.5981 14.0007C37.6176 13.6628 37.7263 13.3362 37.9132 13.054C37.992 12.9225 38.1366 12.6892 38.3469 12.354C38.5572 12.0188 38.8036 11.6212 39.0862 11.1612C39.3688 10.7011 39.6549 10.2312 39.9444 9.75146C40.234 9.27169 40.5064 8.82146 40.7618 8.40084C41.0186 7.98066 41.3046 7.51404 41.6198 7.00097H46.6666L42.7629 13.3694C42.6421 13.5585 42.574 13.7764 42.5657 14.0007C42.5787 14.2361 42.6609 14.4624 42.8019 14.6513H42.8027Z" fill="#0A2343"/>
<path d="M61.5023 8.81325C61.2599 8.43946 60.9488 8.115 60.5855 7.8571C60.1806 7.57348 59.7308 7.36018 59.2549 7.22622C58.6772 7.06677 58.0797 6.99056 57.4806 6.99985H52V20.997H54.07V15.9699H57.6383C58.4437 15.9824 59.2386 15.7852 59.9448 15.3978C60.6218 15.023 61.184 14.4712 61.5713 13.8013C61.9865 13.0619 62.1942 12.2241 62.1726 11.3764C62.1743 10.9184 62.1214 10.4617 62.0149 10.0162C61.9125 9.58933 61.7392 9.18271 61.5023 8.81325ZM59.6689 13.062C59.4038 13.4776 59.0138 13.7985 58.555 13.9787C57.9981 14.1895 57.4055 14.2899 56.8103 14.2744H54.07V8.71535H57.0863C57.6624 8.69351 58.2359 8.80482 58.762 9.04063C59.1806 9.24288 59.5229 9.57473 59.7379 9.98692C59.9657 10.4492 60.0774 10.9601 60.0632 11.4753C60.0858 12.031 59.949 12.5816 59.6689 13.062Z" fill="#0A2343"/>
<path d="M66.3813 7.46313C66.0987 7.61427 65.8228 7.75557 65.5536 7.887C65.2844 8.01842 65.0116 8.14984 64.7352 8.28127C64.4594 8.41269 64.1768 8.53097 63.8874 8.63611C63.598 8.74125 63.2894 8.84642 62.9612 8.95157L63.3946 10.6273C63.7888 10.509 64.147 10.3907 64.469 10.2724C64.7843 10.1568 65.0936 10.0252 65.3956 9.87812C65.6915 9.73355 65.9872 9.57585 66.2827 9.405L66.2929 9.39906V20.9977H68.3429V7.00047H67.2786C66.963 7.15731 66.6639 7.31154 66.3813 7.46313Z" fill="#0A2343"/>
<path d="M79.0871 15.7527C78.9504 15.3591 78.7359 14.997 78.4563 14.6881C78.1657 14.3758 77.8132 14.1274 77.4212 13.959C76.9723 13.7656 76.4974 13.6394 76.0117 13.5844V13.525C76.6013 13.3376 77.1499 13.0399 77.6283 12.6477C78.0551 12.2977 78.4071 11.8654 78.6632 11.3764C78.9053 10.9072 79.0305 10.3864 79.028 9.85845C79.0368 9.41018 78.9352 8.96661 78.7322 8.56682C78.5243 8.18035 78.2269 7.84922 77.8648 7.60112C77.4438 7.31451 76.9722 7.11048 76.475 6.99985C75.8639 6.86126 75.2386 6.79509 74.612 6.80271C74.1997 6.80408 73.788 6.83383 73.3799 6.89176C72.9574 6.94968 72.5392 7.03531 72.128 7.14805C71.7322 7.25513 71.349 7.40381 70.9846 7.59162L71.2605 9.14904C71.5494 9.03076 71.8287 8.92878 72.0984 8.84313C72.368 8.75749 72.6276 8.68848 72.8771 8.63613C73.1266 8.584 73.3698 8.54468 73.6066 8.51817C73.8356 8.49231 74.066 8.47914 74.2965 8.47874C74.7136 8.47195 75.1302 8.51151 75.5385 8.5967C75.8345 8.65635 76.1159 8.7737 76.3665 8.94204C76.5708 9.08601 76.7312 9.2838 76.8299 9.51343C76.934 9.77334 76.9843 10.0517 76.9777 10.3316C76.9833 10.7162 76.8918 11.096 76.7115 11.4359C76.5282 11.7708 76.2722 12.0605 75.9624 12.2836C75.613 12.5333 75.2227 12.7201 74.8091 12.8356C74.3282 12.9716 73.8303 13.038 73.3305 13.0327H72.956L72.7194 14.5708H73.3503C73.932 14.5628 74.5131 14.6123 75.0851 14.7187C75.5134 14.7953 75.9241 14.9489 76.2975 15.1721C76.6029 15.3581 76.8517 15.624 77.0171 15.941C77.1819 16.2816 77.263 16.6567 77.2537 17.0351C77.2637 17.4178 77.1897 17.798 77.0368 18.149C76.8902 18.4601 76.6619 18.7257 76.3764 18.9175C76.0348 19.1402 75.6532 19.2942 75.2527 19.3709C74.7239 19.4769 74.1852 19.5264 73.6459 19.5188C73.4488 19.5188 73.2546 19.5125 73.0644 19.4994C72.8741 19.4862 72.6731 19.4665 72.4631 19.4399C72.2532 19.4133 72.0324 19.3781 71.8027 19.3318C71.573 19.2855 71.3197 19.2303 71.0437 19.1639L70.7874 20.8396C71.0763 20.8922 71.3556 20.9415 71.6253 20.9875C71.8949 21.0335 72.161 21.0729 72.4237 21.1058C72.6865 21.1382 72.9428 21.1611 73.1925 21.1744C73.4423 21.1878 73.6854 21.1945 73.922 21.1945C74.5502 21.1994 75.1775 21.1432 75.7948 21.0266C76.3195 20.9289 76.8274 20.7564 77.303 20.5143C77.7182 20.3034 78.0921 20.0196 78.4069 19.6765C78.7032 19.3468 78.9311 18.9614 79.0772 18.5429C79.2336 18.0828 79.3102 17.5995 79.3039 17.1136C79.3099 16.6509 79.2366 16.1906 79.0871 15.7527Z" fill="#0A2343"/>
</svg>

<svg xmlns="http://www.w3.org/2000/svg" viewBox="0 0 86 28"><path fill="#FFA90A" d="M0 0h86v28H0z"/><path fill="#0A2343" d="M6.667 21V7.001h4.593V21H6.667ZM17.509 9.23 20.151 21h-5.027L11.97 7.001h2.82a2.655 2.655 0 0 1 1.764.641c.49.404.828.964.955 1.587ZM20.841 21V7.001h4.593V21h-4.593Zm8.063-8.675a2.738 2.738 0 0 1-1.41-.375 2.777 2.777 0 0 1-1.015-1.015 2.735 2.735 0 0 1-.375-1.41 2.686 2.686 0 0 1 .375-1.4 2.812 2.812 0 0 1 3.825-1.005c.415.244.76.59 1.005 1.005.25.424.38.908.375 1.4.004.495-.125.982-.375 1.41a2.8 2.8 0 0 1-1.006 1.015c-.423.251-.908.38-1.4.375ZM32.394 21V7.001h4.593V21h-4.593Zm10.409-6.349c.013.014.111.175.295.483.185.309.424.703.72 1.183a366.453 366.453 0 0 1 1.863 3.056c.288.48.617 1.023.986 1.627H41.62a744.12 744.12 0 0 0-.858-1.39c-.256-.414-.529-.861-.818-1.34-.289-.48-.575-.947-.858-1.4a71.148 71.148 0 0 1-.729-1.193 20.758 20.758 0 0 0-.424-.69 2.04 2.04 0 0 1-.335-.986c.02-.338.128-.665.315-.947.079-.132.224-.365.434-.7a210.216 210.216 0 0 0 1.598-2.603c.289-.48.561-.93.817-1.35L41.62 7h5.047l-3.904 6.368c-.12.19-.189.407-.197.632.013.235.095.461.236.65ZM61.502 8.813a3.524 3.524 0 0 0-.916-.956 4.395 4.395 0 0 0-1.331-.63A6.302 6.302 0 0 0 57.48 7H52v13.997h2.07V15.97h3.568c.806.012 1.6-.185 2.307-.572A4.264 4.264 0 0 0 61.57 13.8c.416-.74.623-1.577.602-2.425a5.759 5.759 0 0 0-.158-1.36 3.925 3.925 0 0 0-.513-1.203Zm-1.833 4.249a2.333 2.333 0 0 1-1.114.917 4.59 4.59 0 0 1-1.745.295h-2.74V8.715h3.016a3.75 3.75 0 0 1 1.676.326c.419.202.76.534.976.946.228.462.34.973.325 1.488a2.915 2.915 0 0 1-.394 1.587ZM66.381 7.463c-.282.151-.558.293-.827.424-.27.131-.542.263-.819.394-.276.132-.558.25-.848.355-.289.105-.598.21-.926.316l.434 1.675a18.81 18.81 0 0 0 1.074-.355c.315-.115.625-.247.927-.394.296-.144.591-.302.887-.473l.01-.006v11.599h2.05V7h-1.064c-.316.157-.615.312-.898.463ZM79.087 15.753a3.104 3.104 0 0 0-.63-1.065 3.068 3.068 0 0 0-1.036-.729 4.978 4.978 0 0 0-1.41-.375v-.059a4.883 4.883 0 0 0 1.617-.877 4.11 4.11 0 0 0 1.035-1.272c.242-.469.368-.99.365-1.518a2.734 2.734 0 0 0-.296-1.291 2.75 2.75 0 0 0-.867-.966A4.022 4.022 0 0 0 76.475 7a7.984 7.984 0 0 0-1.863-.197 9.735 9.735 0 0 0-2.484.345 5.804 5.804 0 0 0-1.143.444l.275 1.557c.29-.118.569-.22.838-.306a8.012 8.012 0 0 1 1.509-.325c.229-.026.459-.039.69-.04.417-.006.833.034 1.242.119a2.3 2.3 0 0 1 .828.345c.204.144.364.342.463.571.104.26.154.539.148.819.005.384-.086.764-.266 1.104-.184.335-.44.624-.75.848-.349.25-.74.436-1.153.552a5.23 5.23 0 0 1-1.478.197h-.375l-.237 1.538h.631a8.823 8.823 0 0 1 1.735.148c.428.076.84.23 1.213.453.305.186.554.452.72.769.164.34.245.716.236 1.094.01.383-.064.763-.217 1.114a1.903 1.903 0 0 1-.66.768 3.138 3.138 0 0 1-1.124.454 7.629 7.629 0 0 1-1.607.148c-.197 0-.391-.006-.582-.02-.19-.013-.39-.032-.6-.06a9.187 9.187 0 0 1-.661-.107 20.88 20.88 0 0 1-.76-.168l-.256 1.676c.29.052.569.102.838.148.27.046.536.085.799.118.262.032.519.055.768.068.25.014.493.02.73.02a9.684 9.684 0 0 0 1.873-.167 5.574 5.574 0 0 0 1.508-.513c.415-.21.79-.494 1.104-.837.296-.33.524-.716.67-1.134.157-.46.233-.944.227-1.43a4.05 4.05 0 0 0-.217-1.36Z"/></svg>
